X:15
T:Steyrer Tanz in F, nr. 24
C:traditionell
R:Steirer
A:Hallstatt, Salzkammergut
B:Corpus Musicae Popularis Austriacae (COMPA), 5.Band: J.M.Schmalnauer " Tanz Musik", Verlag Boehlau, Wien 1996
S:manuscript des Johann Michael Schmalnauer um 1820
N:im der quelle in F
N:um1800
N:Neue transkription
M:3/4
L:1/8
K:F
V:1
(FA)(EG)(DF) | EG,CE G2 | (GB)(FA)(EG) | FA,CF A2 |\
(FA)(EG)(DF) | EG,CE G2 | (GB)(FA)(EG) | F4 :|
V:2
AcGBFA | GCEG B2 | BdAcGB | AFA,C F2 |\
AcGBFA | GCEG B2 | BdAcGB | A4 :|
